src/assets/svg/iconLike.svg

<svg width="25.661" height="25.661" fill="none" xmlns="http://www.w3.org/2000/svg">
  <defs>
    <clipPath id="a">
      <rect rx="-.535" width="24.592" height="24.592" transform="translate(.535 .535)" fill="#fff" fill-opacity="0"/>
    </clipPath>
  </defs>
  <g clip-path="url(#a)">
    <path d="M11.75 3.91C9.77 2.17 7.11 1.66 4.89 2.62c-2.33 1-3.88 3.51-3.82 6.26.04 2.08.91 3.87 2.07 5.53 2.57 3.7 6.08 6.44 9.68 9.06.13.1.5.04.66-.08 2.62-1.9 5.17-3.89 7.38-6.28 1.8-1.95 3.4-4.04 4.05-6.68.73-2.92-.5-6-2.93-7.46-2.34-1.41-5.36-1.02-7.61 1-.02.02-.04.03-.05.05-.42.38-.79.81-1.18 1.22-.41-.39-.75-.72-1.09-1.06l-.3-.27Zm3.17 2.24q.47-.51.69-.71 1.61-1.46 3.22-1.47 1.08 0 2.16.65 1.33.8 1.88 1.97.66 1.41.18 3.37-.66 2.66-3.61 5.84-2.27 2.46-6.34 5.48-5.91-4.41-8.38-7.97-1.69-2.43-1.73-4.47-.04-1.9.86-3.09.65-.87 1.8-1.36 1.05-.46 2.06-.37 1.55.13 2.99 1.54l2.49 2.41 1.34-1.4.39-.42Z" fill="#FFF" fill-rule="evenodd"/>
  </g>
</svg>

<svg width="25.661163" height="25.661133" viewBox="0 0 25.6612 25.6611" fill="none" xmlns="http://www.w3.org/2000/svg" xmlns:xlink="http://www.w3.org/1999/xlink">
	<desc>
			Created with Pixso.
	</desc>
	<defs>
		<clipPath id="clip45_1256">
			<rect id="Icons" rx="-0.534607" width="24.591942" height="24.591942" transform="translate(0.534607 0.534607)" fill="white" fill-opacity="0"/>
		</clipPath>
	</defs>
	<g clip-path="url(#clip45_1256)">
		<path id="Vector" d="M11.75 3.91C9.77 2.17 7.11 1.66 4.89 2.62C2.56 3.62 1.01 6.13 1.07 8.88C1.11 10.96 1.98 12.75 3.14 14.41C5.71 18.11 9.22 20.85 12.82 23.47C12.95 23.57 13.32 23.51 13.48 23.39C16.1 21.49 18.65 19.5 20.86 17.11C22.66 15.16 24.26 13.07 24.91 10.43C25.64 7.51 24.41 4.43 21.98 2.97C19.64 1.56 16.62 1.95 14.37 3.97C14.35 3.99 14.33 4 14.32 4.02C13.9 4.4 13.53 4.83 13.14 5.24C12.73 4.85 12.39 4.52 12.05 4.18C11.95 4.09 11.85 4 11.75 3.91ZM14.92 6.15Q15.39 5.64 15.61 5.44L15.61 5.44Q17.22 3.98 18.83 3.97Q19.91 3.97 20.99 4.62Q22.32 5.42 22.87 6.59Q23.53 8 23.05 9.96Q22.39 12.62 19.44 15.8Q17.17 18.26 13.1 21.28Q7.19 16.87 4.72 13.31Q3.03 10.88 2.99 8.84Q2.95 6.94 3.85 5.75Q4.5 4.88 5.65 4.39Q6.7 3.93 7.71 4.02Q9.26 4.15 10.7 5.56L13.19 7.97L14.53 6.57Q14.66 6.43 14.92 6.15Z" fill="#FFFFFF" fill-opacity="1.000000" fill-rule="evenodd"/>
	</g>
</svg>
